X:6
T:Game Over - Lament
C:AI Composer
M:3/4
L:1/4
Q:1/4=60
K:Am
V:1 name="Sad"
"Am"A2 E | "F"F2 E | "Dm"D2 F | "E"E3 |
"Am"A2 c | "G"B2 G | "F"F2 A | "E"E3 |
"Dm"F2 A | "Am"E2 C | "F"F2 D | "E"E3 |
"Am"C2 E | "Dm"D2 F | "E"E2 G | "Am"A3 |]

